;FLAVOR:Marlin
;TIME:6994
;Filament used: 5.48843m
;Layer height: 0.2
;MINX:48.25
;MINY:15.75
;MINZ:0.2
;MAXX:126.75
;MAXY:94.25
;MAXZ:18
;Generated with Cura_SteamEngine 4.8.0
M140 S60
M105
M190 S60
M104 S200
M105
M109 S200
M82 ;absolute extrusion mode
M220 S100 ;Reset Feedrate
M221 S100 ;Reset Flowrate

G28 ;Home

;Fix X0 Y0 being outside the bed after homing
G1 Z2.0 F3000 ;Move Z Axis up
G1 X1.3 Y4.8 ;Place the nozzle over the bed
G92 X0 Y0 ;Set new X0 Y0

;Code for nozzle cleaning and flow normalization
G92 E0 ;Reset Extruder
G1 Z2.0 F3000 ;Move Z Axis up
G1 X10.4 Y20 Z0.28 F5000.0
G1 X10.4 Y170.0 Z0.28 F1500.0 E15
G1 X10.1 Y170.0 Z0.28 F5000.0
G1 X10.1 Y40 Z0.28 F1500.0 E30

G92 E0 ;Reset Extruder
G1 Z2.0 F3000 ;Move Z Axis up
G92 E0
G92 E0
G1 F1500 E-6.5
;LAYER_COUNT:90
;LAYER:0
M107
G0 F9000 X49.314 Y22.368 Z0.2
;TYPE:SKIRT
G1 F1500 E0
G1 F1800 X49.751 Y21.526 E0.03944
G1 X50.257 Y20.723 E0.0789
G1 X50.829 Y19.967 E0.11831
G1 X51.462 Y19.261 E0.15774
G1 X52.153 Y18.611 E0.19718
G1 X52.896 Y18.022 E0.2366
G1 X53.686 Y17.497 E0.27603
G1 X54.168 Y17.221 E0.29912
G1 X54.383 Y17.105 E0.30928
G1 X55.236 Y16.69 E0.34872
G1 X56.121 Y16.349 E0.38815
G1 X57.031 Y16.083 E0.42757
G1 X57.961 Y15.895 E0.46701
G1 X58.903 Y15.786 E0.50644
G1 X59.613 Y15.757 E0.53598
G1 X60.245 Y15.751 E0.56226
G1 X65.182 Y15.759 E0.76752
G1 X65.825 Y15.769 E0.79425
G1 X68.402 Y15.774 E0.90139
G1 X69.489 Y15.752 E0.94659
G1 X69.713 Y15.75 E0.95591
G1 X104.787 Y15.75 E2.41411
G1 X106.274 Y15.77 E2.47594
G1 X109.287 Y15.764 E2.60121
G1 X110.173 Y15.75 E2.63805
G1 X114.836 Y15.751 E2.83191
G1 X115.537 Y15.761 E2.86106
G1 X116.484 Y15.815 E2.9005
G1 X117.424 Y15.948 E2.93996
G1 X118.348 Y16.159 E2.97937
G1 X119.251 Y16.448 E3.01879
G1 X120.127 Y16.812 E3.05823
G1 X120.97 Y17.249 E3.0977
G1 X121.772 Y17.754 E3.13711
G1 X122.529 Y18.326 E3.17655
G1 X123.235 Y18.959 E3.21598
G1 X123.885 Y19.65 E3.25542
G1 X124.475 Y20.392 E3.29483
G1 X125.205 Y21.535 E3.35121
G1 X125.322 Y21.745 E3.36121
G1 X125.748 Y22.592 E3.40063
G1 X126.101 Y23.472 E3.44005
G1 X126.379 Y24.379 E3.47949
G1 X126.58 Y25.306 E3.51892
G1 X126.702 Y26.246 E3.55833
G1 X126.743 Y27.096 E3.59371
G1 X126.749 Y27.691 E3.61845
G1 X126.741 Y32.682 E3.82595
G1 X126.731 Y33.319 E3.85244
G1 X126.726 Y35.902 E3.95983
G1 X126.748 Y36.989 E4.00503
G1 X126.75 Y37.213 E4.01434
G1 X126.749 Y72.432 E5.47858
G1 X126.73 Y73.772 E5.53429
G1 X126.736 Y76.782 E5.65943
G1 X126.75 Y77.673 E5.69648
G1 X126.749 Y82.303 E5.88898
G1 X126.739 Y83.032 E5.91929
G1 X126.686 Y83.979 E5.95872
G1 X126.553 Y84.918 E5.99815
G1 X126.342 Y85.843 E6.03759
G1 X126.054 Y86.747 E6.07704
G1 X125.69 Y87.623 E6.11648
G1 X125.255 Y88.465 E6.15588
G1 X124.749 Y89.268 E6.19534
G1 X124.178 Y90.025 E6.23476
G1 X123.545 Y90.731 E6.27418
G1 X122.855 Y91.382 E6.31362
G1 X122.113 Y91.972 E6.35304
G1 X121.323 Y92.498 E6.39249
G1 X120.832 Y92.779 E6.41601
G1 X120.617 Y92.895 E6.42617
G1 X119.764 Y93.31 E6.46561
G1 X118.879 Y93.651 E6.50504
G1 X117.969 Y93.917 E6.54446
G1 X117.039 Y94.105 E6.5839
G1 X116.097 Y94.214 E6.62333
G1 X115.387 Y94.243 E6.65287
G1 X114.755 Y94.249 E6.67915
G1 X109.818 Y94.241 E6.88441
G1 X109.175 Y94.231 E6.91114
G1 X106.598 Y94.226 E7.01828
G1 X105.511 Y94.248 E7.06348
G1 X105.287 Y94.25 E7.0728
G1 X70.054 Y94.249 E8.53761
G1 X68.726 Y94.23 E8.59283
G1 X65.713 Y94.236 E8.7181
G1 X64.827 Y94.25 E8.75494
G1 X60.164 Y94.249 E8.9488
G1 X59.462 Y94.239 E8.97799
G1 X58.515 Y94.185 E9.01743
G1 X57.576 Y94.052 E9.05686
G1 X56.651 Y93.841 E9.0963
G1 X55.748 Y93.552 E9.13572
G1 X54.872 Y93.188 E9.17516
G1 X54.03 Y92.752 E9.21458
G1 X53.227 Y92.246 E9.25404
G1 X52.47 Y91.674 E9.29349
G1 X51.764 Y91.041 E9.33291
G1 X51.114 Y90.351 E9.37232
G1 X50.524 Y89.608 E9.41176
G1 X49.999 Y88.818 E9.4512
G1 X49.721 Y88.332 E9.47448
G1 X49.605 Y88.117 E9.48463
G1 X49.19 Y87.264 E9.52407
G1 X48.849 Y86.379 E9.5635
G1 X48.583 Y85.469 E9.60292
G1 X48.395 Y84.539 E9.64237
G1 X48.286 Y83.597 E9.68179
G1 X48.257 Y82.882 E9.71154
G1 X48.251 Y82.232 E9.73857
G1 X48.259 Y77.318 E9.94287
G1 X48.269 Y76.675 E9.9696
G1 X48.274 Y74.098 E10.07674
G1 X48.252 Y73.011 E10.12195
G1 X48.25 Y72.787 E10.13126
G1 X48.251 Y37.554 E11.59608
G1 X48.27 Y36.226 E11.65129
G1 X48.264 Y33.198 E11.77718
G1 X48.25 Y32.327 E11.8134
G1 X48.251 Y27.639 E12.0083
G1 X48.261 Y26.957 E12.03666
G1 X48.315 Y26.01 E12.0761
G1 X48.449 Y25.071 E12.11553
G1 X48.661 Y24.147 E12.15495
G1 X48.95 Y23.243 E12.1944
G1 X49.314 Y22.368 E12.2338
G0 F9000 X49.812 Y22.485
G1 F1800 X50.247 Y21.666 E12.27236
G1 X50.752 Y20.888 E12.31092
G1 X51.322 Y20.157 E12.34946
G1 X51.952 Y19.477 E12.388
G1 X52.639 Y18.854 E12.42656
G1 X53.377 Y18.293 E12.4651
G1 X54.406 Y17.661 E12.5153
G1 X54.621 Y17.545 E12.52546
G1 X55.455 Y17.141 E12.56399
G1 X56.321 Y16.809 E12.60255
G1 X57.212 Y16.554 E12.64108
G1 X58.122 Y16.376 E12.67963
G1 X59.044 Y16.278 E12.71818
G1 X59.618 Y16.257 E12.74206
G1 X60.245 Y16.251 E12.76813
G1 X65.174 Y16.259 E12.97305
G1 X65.816 Y16.269 E12.99974
G1 X68.412 Y16.274 E13.10767
G1 X69.493 Y16.252 E13.15263
G1 X69.717 Y16.25 E13.16194
G1 X104.787 Y16.25 E14.61998
G1 X106.268 Y16.27 E14.68156
G1 X109.297 Y16.264 E14.80749
G1 X110.173 Y16.25 E14.84391
G1 X114.829 Y16.251 E15.03749
G1 X115.53 Y16.261 E15.06664
G1 X116.456 Y16.314 E15.1052
G1 X117.374 Y16.447 E15.14376
G1 X118.276 Y16.658 E15.18227
G1 X119.157 Y16.947 E15.22082
G1 X120.011 Y17.31 E15.2594
G1 X120.829 Y17.745 E15.29792
G1 X121.607 Y18.249 E15.33646
G1 X122.339 Y18.819 E15.37503
G1 X123.019 Y19.449 E15.41357
G1 X123.642 Y20.136 E15.45213
G1 X124.203 Y20.873 E15.49064
G1 X124.768 Y21.778 E15.53499
G1 X124.885 Y21.988 E15.54499
G1 X125.301 Y22.817 E15.58355
G1 X125.644 Y23.678 E15.62208
G1 X125.911 Y24.566 E15.66063
G1 X126.101 Y25.473 E15.69916
G1 X126.212 Y26.394 E15.73773
G1 X126.243 Y27.102 E15.76719
G1 X126.249 Y27.691 E15.79168
G1 X126.241 Y32.674 E15.99885
G1 X126.231 Y33.31 E16.02529
G1 X126.226 Y35.912 E16.13347
G1 X126.248 Y36.993 E16.17842
G1 X126.25 Y37.217 E16.18774
G1 X126.249 Y72.425 E17.65152
G1 X126.23 Y73.766 E17.70727
G1 X126.236 Y76.783 E17.83271
G1 X126.25 Y77.673 E17.86971
G1 X126.249 Y82.296 E18.06192
G1 X126.239 Y83.025 E18.09223
G1 X126.186 Y83.951 E18.13079
G1 X126.054 Y84.869 E18.16935
G1 X125.843 Y85.772 E18.2079
G1 X125.555 Y86.653 E18.24644
G1 X125.193 Y87.506 E18.28496
G1 X124.758 Y88.325 E18.32352
G1 X124.254 Y89.103 E18.36206
G1 X123.685 Y89.835 E18.4006
G1 X123.055 Y90.516 E18.43917
G1 X122.369 Y91.139 E18.4777
G1 X121.631 Y91.701 E18.51626
G1 X120.594 Y92.339 E18.56688
G1 X120.379 Y92.455 E18.57704
G1 X119.545 Y92.859 E18.61557
G1 X118.679 Y93.191 E18.65413
G1 X117.788 Y93.446 E18.69266
G1 X116.878 Y93.624 E18.73121
G1 X115.956 Y93.722 E18.76976
G1 X115.382 Y93.743 E18.79364
G1 X114.755 Y93.749 E18.81971
G1 X109.826 Y93.741 E19.02463
G1 X109.184 Y93.731 E19.05132
G1 X106.588 Y93.726 E19.15925
G1 X105.507 Y93.748 E19.20421
G1 X105.283 Y93.75 E19.21352
G1 X70.061 Y93.749 E20.67788
G1 X68.732 Y93.73 E20.73314
G1 X65.703 Y93.736 E20.85907
G1 X64.827 Y93.75 E20.89549
G1 X60.171 Y93.749 E21.08907
G1 X59.469 Y93.739 E21.11826
G1 X58.543 Y93.686 E21.15682
G1 X57.626 Y93.553 E21.19534
G1 X56.723 Y93.342 E21.2339
G1 X55.842 Y93.053 E21.27244
G1 X54.989 Y92.69 E21.31098
G1 X54.17 Y92.255 E21.34954
G1 X53.392 Y91.751 E21.38808
G1 X52.66 Y91.181 E21.42665
G1 X51.98 Y90.551 E21.46519
G1 X51.357 Y89.864 E21.50375
G1 X50.796 Y89.127 E21.54226
G1 X50.161 Y88.094 E21.59267
G1 X50.045 Y87.879 E21.60283
G1 X49.641 Y87.045 E21.64135
G1 X49.309 Y86.179 E21.67991
G1 X49.054 Y85.288 E21.71844
G1 X48.876 Y84.378 E21.75699
G1 X48.778 Y83.456 E21.79554
G1 X48.756 Y82.877 E21.81963
G1 X48.751 Y82.233 E21.84641
G1 X48.759 Y77.326 E22.05042
G1 X48.769 Y76.684 E22.07711
G1 X48.774 Y74.088 E22.18504
G1 X48.752 Y73.007 E22.22999
G1 X48.75 Y72.783 E22.2393
G1 X48.751 Y37.561 E23.70367
G1 X48.77 Y36.232 E23.75892
G1 X48.764 Y33.198 E23.88506
G1 X48.75 Y32.327 E23.92128
G1 X48.751 Y27.646 E24.11589
G1 X48.761 Y26.964 E24.14425
G1 X48.815 Y26.039 E24.18277
G1 X48.948 Y25.121 E24.22134
G1 X49.16 Y24.219 E24.25986
G1 X49.448 Y23.338 E24.2984
G1 X49.812 Y22.485 E24.33695
G0 F9000 X50.309 Y22.604
G1 F1800 X50.744 Y21.81 E24.37459
G1 X51.247 Y21.057 E24.41224
G1 X51.814 Y20.352 E24.44986
G1 X52.441 Y19.699 E24.48749
G1 X53.124 Y19.104 E24.52515
G1 X53.856 Y18.572 E24.56277
G1 X54.643 Y18.101 E24.60091
G1 X54.858 Y17.985 E24.61106
G1 X55.673 Y17.591 E24.6487
G1 X56.519 Y17.27 E24.68632
G1 X57.391 Y17.025 E24.72397
G1 X58.281 Y16.858 E24.76162
G1 X59.623 Y16.757 E24.81757
G1 X60.244 Y16.751 E24.84339
G1 X65.166 Y16.759 E25.04803
G1 X65.807 Y16.769 E25.07468
G1 X68.421 Y16.774 E25.18336
G1 X69.497 Y16.752 E25.2281
G1 X69.721 Y16.75 E25.23741
G1 X104.787 Y16.75 E26.69529
G1 X106.261 Y16.77 E26.75658
G1 X109.306 Y16.764 E26.88317
G1 X110.173 Y16.75 E26.91922
G1 X114.822 Y16.751 E27.11251
G1 X115.523 Y16.761 E27.14165
G1 X116.427 Y16.814 E27.1793
G1 X117.323 Y16.946 E27.21696
G1 X118.203 Y17.157 E27.25458
G1 X119.061 Y17.445 E27.29221
G1 X119.891 Y17.807 E27.32985
G1 X120.685 Y18.242 E27.36749
G1 X121.438 Y18.744 E27.40512
G1 X122.144 Y19.311 E27.44276
G1 X122.797 Y19.938 E27.4804
G1 X123.392 Y20.621 E27.51806
G1 X123.924 Y21.353 E27.55568
G1 X124.331 Y22.021 E27.5882
G1 X124.448 Y22.231 E27.5982
G1 X124.853 Y23.041 E27.63585
G1 X125.186 Y23.883 E27.67349
G1 X125.442 Y24.751 E27.71112
G1 X125.621 Y25.639 E27.74878
G1 X125.721 Y26.538 E27.78639
G1 X125.743 Y27.107 E27.81006
G1 X125.749 Y27.69 E27.8343
G1 X125.741 Y32.666 E28.04118
G1 X125.731 Y33.301 E28.06758
G1 X125.726 Y35.921 E28.17651
G1 X125.748 Y36.997 E28.22125
G1 X125.75 Y37.221 E28.23057
G1 X125.749 Y72.418 E29.69389
G1 X125.73 Y73.76 E29.74969
G1 X125.736 Y76.784 E29.87541
G1 X125.75 Y77.673 E29.91238
G1 X125.749 Y82.29 E30.10433
G1 X125.739 Y83.019 E30.13464
G1 X125.687 Y83.922 E30.17224
G1 X125.555 Y84.818 E30.2099
G1 X125.344 Y85.699 E30.24756
G1 X125.057 Y86.557 E30.28517
G1 X124.695 Y87.387 E30.32282
G1 X124.261 Y88.182 E30.36048
G1 X123.759 Y88.935 E30.3981
G1 X123.192 Y89.641 E30.43575
G1 X122.566 Y90.294 E30.47336
G1 X121.884 Y90.889 E30.51099
G1 X121.152 Y91.422 E30.54863
G1 X120.357 Y91.899 E30.58718
G1 X120.142 Y92.015 E30.59733
G1 X119.327 Y92.409 E30.63497
G1 X118.481 Y92.73 E30.67259
G1 X117.609 Y92.975 E30.71025
G1 X116.719 Y93.142 E30.74789
G1 X115.377 Y93.243 E30.80385
G1 X114.756 Y93.249 E30.82967
G1 X109.834 Y93.241 E31.0343
G1 X109.193 Y93.231 E31.06095
G1 X106.579 Y93.226 E31.16963
G1 X105.503 Y93.248 E31.21437
G1 X105.279 Y93.25 E31.22369
G1 X70.068 Y93.249 E32.68759
G1 X68.739 Y93.23 E32.74285
G1 X65.694 Y93.236 E32.86945
G1 X64.827 Y93.25 E32.9055
G1 X60.178 Y93.249 E33.09878
G1 X59.476 Y93.239 E33.12797
G1 X58.572 Y93.186 E33.16562
G1 X57.677 Y93.054 E33.20323
G1 X56.796 Y92.843 E33.24089
G1 X55.938 Y92.555 E33.27852
G1 X55.108 Y92.193 E33.31617
G1 X54.314 Y91.758 E33.35381
G1 X53.561 Y91.256 E33.39143
G1 X52.855 Y90.689 E33.42908
G1 X52.202 Y90.062 E33.46671
G1 X51.607 Y89.379 E33.50437
G1 X51.075 Y88.647 E33.542
G1 X50.601 Y87.857 E33.5803
G1 X50.485 Y87.642 E33.59046
G1 X50.091 Y86.827 E33.62809
G1 X49.77 Y85.981 E33.66571
G1 X49.525 Y85.109 E33.70337
G1 X49.358 Y84.219 E33.74102
G1 X49.256 Y82.872 E33.79718
G1 X49.251 Y82.234 E33.8237
G1 X49.259 Y77.334 E34.02742
G1 X49.269 Y76.693 E34.05407
G1 X49.274 Y74.079 E34.16275
G1 X49.252 Y73.003 E34.2075
G1 X49.25 Y72.779 E34.21681
G1 X49.251 Y37.568 E35.68071
G1 X49.27 Y36.239 E35.73597
G1 X49.264 Y33.194 E35.86257
G1 X49.25 Y32.327 E35.89862
G1 X49.251 Y27.654 E36.0929
G1 X49.261 Y26.972 E36.12126
G1 X49.314 Y26.068 E36.15891
G1 X49.447 Y25.172 E36.19657
G1 X49.658 Y24.292 E36.23419
G1 X49.947 Y23.434 E36.27183
G1 X50.309 Y22.604 E36.30948
G0 F9000 X62.25 Y29.754
G1 F1800 X62.829 Y29.755 E36.33355
G1 X62.829 Y30.329 E36.35741
G1 X62.25 Y30.329 E36.38148
G1 X62.25 Y29.754 E36.40539
G0 F9000 X61.75 Y29.253
G1 F1800 X63.329 Y29.256 E36.47104
G1 X63.329 Y30.829 E36.53643
G1 X61.75 Y30.829 E36.60208
G1 X61.75 Y29.253 E36.6676
G0 F9000 X61.25 Y28.752
G1 F1800 X63.829 Y28.756 E36.77483
G1 X63.829 Y31.329 E36.8818
G1 X61.25 Y31.329 E36.98902
G1 X61.25 Y28.752 E37.09616
G0 F9000 X60.75 Y28.252
G1 F1800 X64.329 Y28.257 E37.24496
G1 X64.329 Y31.829 E37.39347
G1 X60.75 Y31.829 E37.54226
G1 X60.75 Y28.252 E37.69098
G0 F9000 X60.25 Y27.751
G1 F1800 X64.829 Y27.758 E37.88135
G1 X64.829 Y32.329 E38.07139
G1 X60.25 Y32.329 E38.26176
G1 X60.25 Y27.751 E38.45209
G0 F9000 X59.75 Y27.25
G1 F1800 X65.329 Y27.258 E38.68404
G1 X65.329 Y32.829 E38.91566
G1 X59.75 Y32.829 E39.14761
G1 X59.75 Y27.25 E39.37955
G1 F1500 E32.87955
G0 F9000 X58.839 Y36.843
G0 X58.839 Y73.157
G0 X59.758 Y77.171
G1 F1500 E39.37955
G1 F1800 X65.329 Y77.171 E39.61117
G1 X65.329 Y82.75 E39.84312
G1 X59.75 Y82.75 E40.07506
G1 X59.758 Y77.171 E40.30701
G0 F9000 X60.258 Y77.671
G1 F1800 X64.829 Y77.671 E40.49705
G1 X64.829 Y82.25 E40.68743
G1 X60.251 Y82.25 E40.87776
G1 X60.258 Y77.671 E41.06813
G0 F9000 X60.757 Y78.171
G1 F1800 X64.329 Y78.171 E41.21664
G1 X64.329 Y81.75 E41.36543
G1 X60.752 Y81.75 E41.51415
G1 X60.757 Y78.171 E41.66295
G0 F9000 X61.256 Y78.671
G1 F1800 X63.829 Y78.671 E41.76992
G1 X63.829 Y81.25 E41.87714
G1 X61.252 Y81.25 E41.98428
G1 X61.256 Y78.671 E42.0915
G0 F9000 X61.756 Y79.171
G1 F1800 X63.329 Y79.171 E42.1569
G1 X63.329 Y80.75 E42.22255
G1 X61.753 Y80.75 E42.28807
G1 X61.756 Y79.171 E42.35372
G0 F9000 X62.255 Y79.671
G1 F1800 X62.829 Y79.671 E42.37758
G1 X62.829 Y80.25 E42.40165
G1 X62.254 Y80.25 E42.42556
G1 X62.255 Y79.671 E42.44963
G1 F1500 E35.94963
G0 F9000 X69.343 Y83.661
G0 X105.657 Y83.661
G0 X106.064 Y83.254
G0 X109.671 Y77.171
G1 F1500 E42.44963
G1 F1800 X115.25 Y77.171 E42.68158
G1 X115.25 Y82.75 E42.91353
G1 X109.671 Y82.742 E43.14547
G1 X109.671 Y77.171 E43.37709
G0 F9000 X110.171 Y77.671
G1 F1800 X114.75 Y77.671 E43.56746
G1 X114.75 Y82.249 E43.75779
G1 X110.171 Y82.242 E43.94817
G1 X110.171 Y77.671 E44.13821
G0 F9000 X110.671 Y78.171
G1 F1800 X114.25 Y78.171 E44.287
G1 X114.25 Y81.748 E44.43572
G1 X110.671 Y81.743 E44.58452
G1 X110.671 Y78.171 E44.73302
G0 F9000 X111.171 Y78.671
G1 F1800 X113.75 Y78.671 E44.84025
G1 X113.75 Y81.248 E44.94738
G1 X111.171 Y81.244 E45.05461
G1 X111.171 Y78.671 E45.16158
G0 F9000 X111.671 Y79.171
G1 F1800 X113.25 Y79.171 E45.22723
G1 X113.25 Y80.747 E45.29275
G1 X111.671 Y80.744 E45.3584
G1 X111.671 Y79.171 E45.42379
G0 F9000 X112.171 Y79.671
G1 F1800 X112.75 Y79.671 E45.44787
G1 X112.75 Y80.246 E45.47177
G1 X112.171 Y80.245 E45.49584
G1 X112.171 Y79.671 E45.51971
G1 F1500 E39.01971
G0 F9000 X116.161 Y73.157
G0 X116.161 Y36.843
G0 X112.171 Y29.75
G1 F1500 E45.51971
G1 F1800 X112.746 Y29.75 E45.54361
G1 X112.745 Y30.329 E45.56769
G1 X112.171 Y30.329 E45.59155
G1 X112.171 Y29.75 E45.61562
G0 F9000 X111.671 Y29.25
G1 F1800 X113.247 Y29.25 E45.68114
G1 X113.244 Y30.829 E45.74679
G1 X111.671 Y30.829 E45.81219
G1 X111.671 Y29.25 E45.87784
G0 F9000 X111.171 Y28.75
G1 F1800 X113.748 Y28.75 E45.98498
G1 X113.744 Y31.329 E46.0922
G1 X111.171 Y31.329 E46.19917
G1 X111.171 Y28.75 E46.30639
G0 F9000 X110.671 Y28.25
G1 F1800 X114.248 Y28.25 E46.45511
G1 X114.243 Y31.829 E46.60391
G1 X110.671 Y31.829 E46.75241
G1 X110.671 Y28.25 E46.90121
G0 F9000 X110.171 Y27.75
G1 F1800 X114.749 Y27.75 E47.09154
G1 X114.742 Y32.329 E47.28191
G1 X110.171 Y32.329 E47.47195
G1 X110.171 Y27.75 E47.66233
G0 F9000 X109.671 Y27.25
G1 F1800 X115.25 Y27.25 E47.89427
G1 X115.242 Y32.829 E48.12622
G1 X109.671 Y32.829 E48.35784
G1 X109.671 Y27.25 E48.58979
G1 F1500 E42.08979
;MESH:enclosure_top.STL
G0 F9000 X99.903 Y42.358
G0 X98.653 Y42.42
G0 X98.653 Y44.114
G0 X84.347 Y66.42
G0 X86.596 Y64.171
G0 X85.428 Y69.195
G0 X81.94 Y69.197
G0 X80.028 Y71.2
G0 X78.244 Y70.404
G0 X76.289 Y70.404
G0 X74.506 Y71.2
G0 X73.198 Y72.651
G0 X72.595 Y74.51
G0 X73.044 Y78.803
;TYPE:WALL-INNER
G1 F1500 E48.58979
G1 F1800 X74.957 Y80.192 E48.66842
G1 X77.267 Y80.681 E48.74695
G1 X79.576 Y80.192 E48.82545
G1 X81.489 Y78.803 E48.90408
G1 X82.67 Y76.754 E48.98274
G1 X82.917 Y74.406 E49.06127
G1 X82.186 Y72.161 E49.13979
